X:40
T:Ductie
C:Anonyme
O:XIIIe siècle
Z:Transcrit et/ou corrigé par B@D - 2006-09-30
Z:Pour toute observation mailto:-@-
M:6/8
L:1/8
Q:"Andante" 3/8=72
K:F
V:1
g2a (ba).g | f3 (f2d) | e2c (d2e) | f3z3 | g2e (f2g) | f3 d2B | 
(cd).e (fg).e | f3z3 | d2e (f2g) | a2g (e2f) | d2e (fa).f | g3z3 | f2e (d2c) |
e3 (e2f) | d3 (d2e) | f3z3 | g2g (fe).d | f3 (f2a) | g2g (fe).d | c3z3 |
g2g (fe).d | f3 (f2a) | g2g (fe).d | c3z3 |: f2e (f2g) | e3 (e2c) | 
d2e (f2e) | d3z3 | f2e (f2g) | e3 (e2c) | d3 (e2d) | c6 :|]
V:2 clef=perc stafflines=1 staffscale=0.6
K:none
ezz eze | ezz ezz | ezz eze | e2e e2e | ezz eze | ezz ezz |
ezz eze | e2ee2e | ezz eze | ezz ezz | ezz eze | e2e e2e | ezz eze |
ezz ezz | ezz eze | e2e e2e | ezz eze | ezz ezz | ezz eze | e2e e2e | 
ezz eze | ezz ezz | ezz eze | e2e e2e |: ezz eze | ezz ezz |
ezz eze | e2e e2e | ezz eze | ezz ezz | ezz eee | ezz ezz :|
V:3
c2c (BA).G | B3 (B2d) | c2c (BA).G | F3z3 | c2c (BA).G | B3 B2d |
c2c (BA).G | F3 z3 | B2A (B2c) | A3 (A2F) | G2A (B2A) | G3z3 | B2A (B2c) |
A3 (A2F) | G3 (A2G) | F3 z3 | c3 d3 | B3 (B2A) | c3 B3 | c3 z3 |
G3 B3 | F3 (B2A) | c3 B3 | c3 z3 |: B2c (B2G) | A3 (A2B) |
G2A (F2A) | G3z3 | B2c (B2G) | A3 (A2B) | G3 (A2B) | c6 :|





%%header "$P0	 $IR 	$P1"
%%footer $D - Éditions Galouvielle - 2009 - À usage librement privé dans le cadre familial

